X:1
T:F Major French Psalter, 1560
T:William Kethe, 1561 66. 86. (S. M.)
T:Psalm 134 No copyright. Transcribed from The Scottish Psalter, 1635.
%%score [ 1 2 3 4 ]
L:1/8
M:8/4
K:F
V:1 treble nm="Treble" snm="Tr."
V:2 treble nm="Counter" snm="C."
V:3 treble-8 nm="Tenor" snm="T."
V:4 bass nm="Bass" snm="B."
V:1
"^1. Behold, and have regard,   Ye servants of the Lord,    Who in His house by night do watch,   Praise Him with one accord." c4 d4 f4 e2 e2 | %1
 fg a2 g2 f2 f2 e2 f4 || a4 g2 f2 e2 d2 e4 | g4 ^f4 =f4 e2 d2 |[M:6/4] c2 B2 A8 |] %5
V:2
"^2. Lift up your hands on high  Unto   His   holy   place:    And  give  the  Lord  His praises  due,  His      benefits     embrace." G4 B4 c4 c2 c2 | %1
 c2 f2 d2 c2 c3 B A4 || c4 c2 A2 A2 F2 c4 | d4 d4 c4 c2 A2 |[M:6/4] A2 F2 c8 |] %5
V:3
"^3. For why? the Lord who did  Both earth and heaven frame Doth Zion bless, and will  conserve  For   evermore    the same." C4 F4 A4 G2 G2 | %1
 A2 c2 B2 A2 G2 G2 F4 || F4 E2 D2 C2 F2 G4 | B4 A4 A4 G2 F2 |[M:6/4] E2 D2 C8 |] %5
V:4
 C,4 B,,4 F,,4 C,2 C,2 | F,2 F,2 D,2 F,2 C,2 C,2 F,,4 || F,4 C,2 D,2 A,,2 D,2 C,4 | %3
 G,,4 D,4 F,4 C,2 D,2 |[M:6/4] A,,2 B,,2 F,,8 |] %5

